X:30
T:The wawking of the Faulds
N:from Orpheus Caledonius, II, 1733
N:from The Scottish Music List, Vol2 No 99
Z:Bruce Olson
L:1/8
M:C|
K:G dorian
F2|C D F F F2 F D|c A G F D2CD|F G A G F D C D|\
F G A G F D C F|D G G G G2 A C|A G A c d2 fg|\
a g f d c d f A|G F D F G2|| f2|d g g gbg2 f g|]
